X:8
T:H\"o\"ok-Olles storpolska
R:polska J
A:R\"attvik, Dalarna
Z:id:hn-jp-8
M:3/4
L:1/16
K:D
dedA FGFD E4|A3A c2e2 a4|abaf gage fgfd|efec d2dA F2A2|
d2dA FGFD E4|A3A c2e2 a4|abaf gage fgfd|efec d8:|
|:d2fe d2fe d2fe|cded cded cded|G2BA G2BA G2BA|FGAG FGAG FGAG|
F3A d2f2 f2ed|c3d e2g2 f2ed|g2bg f2af e2ed|cdec d8:|
|:ABAG F2A2 d3c|BcBA G2B2 e3f|g2bg f2af e2ed|cdec A8|
ABAG F2A2 d3c|BcBA G2B2 e3f|g2bg f2af e2ed|cdec d8:|
<end>
<start>
